X:1
T:Quadran Pavane
C:Melody from R.C.M. Ms. 1119
N:arr. Joseph Casazza; matches Pile 2018.
M:C|
L:1/4
K:G major
G/A/ | "G"B3/A/ G"C"e | "G"dc BA | B3/A/ "Em"G3/G/ | "D"A/B/"C"c "Gsus4 "c "G"B | "C"c2 Ac | "Gsus4"cB/A/ c"G"B | "C"c3/c/ c"G"B | "D"A/G/A/B/ "Am"c/B/"D"d/c/ ||
"G"B3/A/ Gd | "G"dB/c/ d/c/B/A/ | B3/A/ "Em"GA/B/ | "Am"cB AG | "D"F3/E/ D"Am"A | "Em"A"G"G "D"F"A"E | "D"F2 F2 | "Am"E"D"D "G"GA ||
"G"B3/A/ G"C"e | "G"dc BA | B3/A/ "Em"G3/G/ | "D"A/B/"C"c "Gsus4 "c"G"B | "C"c2 Ac | "Gsus4"cB/A/ c"G"B | "C"c3/c/ c"G"B | "D"A/G/A/B/ "Am"c/B/"D"d/c/ ||
"G"B"D"A/B/ "C"c"G"B | "D"AG F"C"E | "D"FD "G"G2 | "Dsus4"GF/E/ "D"F/G/E/F/ | "G"G2 d2 | "C"c3/B/ "D"A/B/c/d/ | "G"B2 BB | "G"B4 |]

